X:12882
T:Pasucis (CT 329)
T:Pasucis de Peruyes (CT 329)
R:Pasucis
C:Tradicional
S:Msica Tradicional Asturiana, (C) Tello & Tito. Asturies, 2001.
S:http://pagina.de/MusTradAst <telloytito@asturies.org>
N:Pasucis de gaita, transcrita en Peruyes, ayuntamiento de Cangas d'Ons.
O:Peruyes (Cangas d'Ons)
A:Asturies
G:Arrg.
Z:Cancioneru de Torner 329
E:2 Voces
M:2/4
L:1/8
Q:1/4=120
K:G
V:1
d4-|
d2 GB/A/|Gd/c/ Bd|g2 ce/d/|cc/B/ AA/G/|
F2 GB/A/|Gd/c/ Bd|g2 ce/d/|cc/B/ AG/F/|
|:G2 dd/c/|BB/A/ GA|BB dd/c/|BB/A/ GA|
G2 dd/c/|BB/A/ GA|BB dd/c/|BB/A/ GA|
G2 GB/A/|Gd/c/ Bd|g2 ce/d/|cc/B/ AA/G/|
F2 GB/A/|Gd/c/ Bd|g2 ce/d/|cc/B/ AG/F/|
[1 G4:|[2 G2 d2-|d4|!
V:2
|"Tambor" G/4G/4G/4G/4G/4G/4G/4"Redoble"G/4G/4G/4G/4G/4G/4G/4G/4G/4|
G/2G/2G G/2G/2G|G/2G/2G G/2G/2G|G/2G/2G G/2G/2G|G/2G/2G G/2G/2G|
G/2G/2G G/2G/2G|G/2G/2G G/2G/2G|G/2G/2G G/2G/2G|G/2G/2G G/2G/2G|
|:G/2G/2G G/2G/2G|G/2G/2G G/2G/2G|G/2G/2G G/2G/2G|G/2G/2G G/2G/2G|
G/2G/2G G/2G/2G|G/2G/2G G/2G/2G|G/2G/2G G/2G/2G|G/2G/2G G/2G/2G|
G/2G/2G G/2G/2G|G/2G/2G G/2G/2G|G/2G/2G G/2G/2G|G/2G/2G G/2G/2G|
G/2G/2G G/2G/2G|G/2G/2G G/2G/2G|G/2G/2G G/2G/2G|G/2G/2G G/2G/2G|
[1 G/2G/2G G/2G/2G:|[2 G/2G/2G G/2G/2G|G/4G/4G/4G/4G/4G/4G/4G/4||
